img/icon-vk.svg

<svg width="44" height="44" viewBox="0 0 44 44" fill="none" xmlns="http://www.w3.org/2000/svg">
<path fill-rule="evenodd" clip-rule="evenodd" d="M22.1627 1.4839C33.6533 1.4839 42.9683 10.5873 42.9683 21.8169C42.9683 33.0461 33.6533 42.1494 22.1627 42.1494C10.6721 42.1494 1.35714 33.0461 1.35714 21.8169C1.35714 10.5873 10.6721 1.4839 22.1627 1.4839Z" fill="#212A3A"/>
<path d="M24.5403 25.7281C25.4609 25.4384 26.6396 27.6406 27.8943 28.4834C28.8361 29.1219 29.5573 28.9841 29.5573 28.9841L32.9017 28.9372C32.9017 28.9372 34.6495 28.8322 33.8233 27.4803C33.7549 27.3678 33.3389 26.4781 31.334 24.6472C29.2376 22.7319 29.5217 23.0422 32.0456 19.7309C33.5835 17.7125 34.1988 16.4797 34.0062 15.9547C33.8213 15.4494 32.6918 15.5806 32.6918 15.5806L28.9237 15.6059C28.5568 15.6069 28.2458 15.7175 28.1042 16.0887C28.1013 16.0925 27.5062 17.6506 26.7127 18.9753C25.0362 21.7775 24.367 21.9266 24.0896 21.7512C23.4531 21.3453 23.6139 20.1228 23.6139 19.2537C23.6139 16.5378 24.0299 15.4053 22.7993 15.1128C22.3881 15.0153 22.0876 14.9516 21.039 14.9422C19.6985 14.9225 18.5603 14.9422 17.9151 15.2506C17.4866 15.4597 17.1582 15.9181 17.3576 15.9444C17.6079 15.9772 18.1693 16.0944 18.4698 16.4937C18.8559 17.0112 18.8444 18.1709 18.8444 18.1709C18.8444 18.1709 19.0649 21.3687 18.3244 21.7653C17.8159 22.0372 17.1207 21.4822 15.6252 18.9378C14.8616 17.6366 14.2847 16.1984 14.2847 16.1984C14.2847 16.1984 14.173 15.9312 13.9708 15.785C13.7301 15.6116 13.393 15.5562 13.393 15.5562L9.81659 15.5787C9.81659 15.5787 9.27926 15.5937 9.08185 15.8244C8.90659 16.0287 9.06741 16.4506 9.06741 16.4506C9.06741 16.4506 11.8687 22.9016 15.0407 26.1509C17.9488 29.1341 21.2537 28.9362 21.2537 28.9362H22.7511C22.7511 28.9362 23.2027 28.8856 23.4339 28.6437C23.6496 28.4187 23.6399 27.9959 23.6399 27.9959C23.6399 27.9959 23.6101 26.0187 24.5403 25.7281Z" fill="white"/>
</svg>

<svg width="44" height="44" fill="none" xmlns="http://www.w3.org/2000/svg"><path fill-rule="evenodd" clip-rule="evenodd" d="M22.16 1.48c11.5 0 20.8 9.1 20.8 20.34 0 11.23-9.3 20.33-20.8 20.33-11.49 0-20.8-9.1-20.8-20.33 0-11.23 9.31-20.34 20.8-20.34z" fill="#212A3A"/><path d="M24.54 25.73c.92-.3 2.1 1.91 3.35 2.75.95.64 1.67.5 1.67.5l3.34-.04s1.75-.1.92-1.46c-.07-.11-.48-1-2.49-2.83-2.1-1.92-1.8-1.6.72-4.92 1.53-2.02 2.15-3.25 1.96-3.78-.19-.5-1.32-.37-1.32-.37l-3.77.03c-.36 0-.67.1-.82.48 0 0-.6 1.56-1.39 2.89-1.67 2.8-2.34 2.95-2.62 2.77-.64-.4-.48-1.63-.48-2.5 0-2.71.42-3.84-.81-4.14-.41-.1-.71-.16-1.76-.17-1.34-.02-2.48 0-3.12.31-.43.21-.76.67-.56.7.25.03.8.14 1.11.54.39.52.37 1.68.37 1.68s.22 3.2-.52 3.6c-.5.27-1.2-.29-2.7-2.83-.76-1.3-1.34-2.74-1.34-2.74s-.1-.27-.3-.41c-.25-.18-.59-.23-.59-.23l-3.57.02s-.54.01-.74.24c-.17.2-.01.63-.01.63s2.8 6.45 5.97 9.7c2.9 2.98 6.21 2.79 6.21 2.79h1.5s.45-.05.68-.3c.22-.22.21-.64.21-.64s-.03-1.98.9-2.27z" fill="#fff"/></svg>
